static/images/icons/bluesky.svg

<svg fill="none" height="42" viewBox="0 0 42 42" width="42" xmlns="http://www.w3.org/2000/svg" xmlns:xlink="http://www.w3.org/1999/xlink"><linearGradient id="a" gradientUnits="userSpaceOnUse" x1="0" x2="17.75" y1="0" y2="38.0649"><stop offset="0" stop-color="#59decb"/><stop offset=".6" stop-color="#3b63e7"/><stop offset="1" stop-color="#de59cc"/></linearGradient><clipPath id="b"><path d="m0 0h42v42h-42z"/></clipPath><g clip-path="url(#b)"><path d="m21 42c11.598 0 21-9.402 21-21 0-11.59798-9.402-21-21-21-11.59798 0-21 9.40202-21 21 0 11.598 9.40202 21 21 21z" fill="url(#a)"/><path d="m13.6358 11.5409c2.9809 2.2379 6.1871 6.7752 7.3643 9.2103 1.1772-2.4349 4.3833-6.9725 7.3642-9.2103 2.1508-1.61468 5.6357-2.86406 5.6357 1.1115 0 .794-.4552 6.6699-.7222 7.6238-.9281 3.3165-4.3099 4.1624-7.3181 3.6504 5.2583.895 6.5959 3.8593 3.7071 6.8237-5.4864 5.6298-7.8856-1.4126-8.5006-3.2171-.1127-.3308-.1654-.4856-.1662-.354-.0008-.1316-.0535.0232-.1662.354-.6148 1.8045-3.0139 8.8471-8.5006 3.2171-2.88886-2.9644-1.5513-5.9289 3.7071-6.8237-3.0083.512-6.39016-.3339-7.31809-3.6504-.267-.954-.72221-6.8299-.72221-7.6238 0-3.97556 3.4851-2.72618 5.6358-1.1115z" fill="#fff"/></g></svg>

<svg width="42" height="42" viewBox="0 0 42 42" fill="none" xmlns="http://www.w3.org/2000/svg">
<g clip-path="url(#clip0_586_4535)">
<mask id="mask0_586_4535" style="mask-type:luminance" maskUnits="userSpaceOnUse" x="0" y="0" width="42" height="42">
<path d="M0 0H42V42H0V0Z" fill="white"/>
</mask>
<g mask="url(#mask0_586_4535)">
<path d="M21 42C32.598 42 42 32.598 42 21C42 9.40202 32.598 0 21 0C9.40202 0 0 9.40202 0 21C0 32.598 9.40202 42 21 42Z" fill="url(#paint0_linear_586_4535)"/>
<path d="M13.6358 11.5409C16.6167 13.7788 19.8229 18.3161 21.0001 20.7512C22.1773 18.3163 25.3834 13.7787 28.3643 11.5409C30.5151 9.92623 34 8.67685 34 12.6524C34 13.4464 33.5448 19.3223 33.2778 20.2762C32.3497 23.5927 28.9679 24.4386 25.9597 23.9266C31.218 24.8216 32.5556 27.7859 29.6668 30.7503C24.1804 36.3801 21.7812 29.3377 21.1662 27.5332C21.0535 27.2024 21.0008 27.0476 21 27.1792C20.9992 27.0476 20.9465 27.2024 20.8338 27.5332C20.219 29.3377 17.8199 36.3803 12.3332 30.7503C9.44434 27.7859 10.7819 24.8214 16.0403 23.9266C13.032 24.4386 9.65014 23.5927 8.72221 20.2762C8.45521 19.3222 8 13.4463 8 12.6524C8 8.67685 11.4851 9.92623 13.6358 11.5409Z" fill="#0E1025"/>
</g>
</g>
<defs>
<linearGradient id="paint0_linear_586_4535" x1="8.5" y1="7" x2="34.5" y2="36" gradientUnits="userSpaceOnUse">
<stop stop-color="#FEC976"/>
<stop offset="0.5" stop-color="#FFEA8D"/>
<stop offset="1" stop-color="#CADE39"/>
</linearGradient>
<clipPath id="clip0_586_4535">
<rect width="42" height="42" fill="white"/>
</clipPath>
</defs>
</svg>
